X:1
T:2 Lieder, Op.28
T:Traumbild
T:In Musik gesetzt und ihrer lieben Freundin Franziska Ammermüller gewidmet von Josephine Lang
T:2 Lieder, Op.28
T:Josephine Lang
T:Heinrich Heine
T:1. Traumbild
T:Creative Commons copyright waiver (CC0 1.0 Universal)
T:Creative Commons copyright waiver (CC0 1.0 Universal)
T:Creative Commons copyright waiver (CC0 1.0 Universal)
T:Creative Commons copyright waiver (CC0 1.0 Universal)
C:Josephine Lang
Z:Heinrich Heine
Z:Creative Commons copyright waiver (CC0 1.0 Universal)
%%score 1 2
L:1/8
Q:1/4=92
M:3/4
K:F
V:1 bass nm="Violoncello" snm="Vc."
V:2 treble nm="Singstimme\nVoice" snm="S."
V:1
"^Andante" z6 | %1
"^NOTE:  the full German text is available on Lieder.net:\nhttps://www.lieder.net/lieder/get_text.html?TextId=7419\n" z6 | %2
 z6 | z6 | z6 | z6 | z6 | z6 | z6 | z6 | z6 | z6 | z6 | z6 | z6 | z6 | z6 | z6 | z6 | z6 | z6 | %21
 z6 | z6 | z6 | z6 | z6 | z6 | z6 | z6 | z6 | z6 | z6 | z6 | z6 | z6 | z6 | z6 | z6 | z6 | z6 | %40
 z6 | z6 | z6 | z6 | z6 | z6 | z6 | z6 | z6 | z6 | z6 | z6 | z6 |] %53
V:2
 z6 | z6 | z6 | z6 | z6 | z6 | z6 | (3FG ^G A2 A2 | (3AB A c2- (3c B A | (3:2:2G2 ^F G2- (3G A =F | %10
w: |||||||Wenn * ich auf dem|La- * ger lie- * ge In|Nacht und Kis- * sen ge-|
 c4 z2 | z F FF (3AGF | f4 FG | A2-{/B} (3AGA d>c | F2 z2 z2 | z6 | z6 | z6 | z6 | z G f2- fe | %20
w: hüllt,||||||||||
 ed =B2 GG | G4 AA | AF D2 z2 | z G f2- fe | e>d c2 =BA | G2- G^F =FD | C4 z2 | z ^F G2- GF | %28
w: ||||||||
 G^G A2 =F=G | A2- AA d>c | c6 | z6 | z A A2 A2 | (3ABA c2- (3cBA | G^F G2- (3GA=F | c4 z2 | %36
w: ||||||||
 z F FF (3AGF | f4 F>G | A2- (3AGA d>c | A4 z A | A2 B2 A>B | c4 (3edc | _e2 d2 f2 | f4 A z/ A/ | %44
w: ||||||||
 G4 ^F>G | e2- (3:2:5e2 c BDE | F4 z2 | z6 | z6 | z6 | z6 | z6 | z6 |] %53
w: |||||||||

